X: 6
T: Sailor's Wife, The
Z: Damien Rogeau
S: https://thesession.org/tunes/3140#setting30182
R: jig
M: 6/8
L: 1/8
K: Gmaj
EFG F2E | e2f g2a | bag fed | B/c/dB AFD |
EFG F2E | e2f g2a | bge af^d |1 e3 eBG :|2 e3 e2f ||
|:gab b3 | gab bag | fda fda | fda agf |
gab bag | fga aga | bge afe^d |1 e3 e2f :|2 e3 eBG ||
